X:1
T:WALAU SERIBU LIDAHKU
T:(O For A Thousand Tongues to Sing)
T:LYNGHAM
T:Charles Wesley/Thomas Jarman
%%score 1 2 { ( 3 4 ) | ( 5 6 ) } 7
L:1/8
Q:1/2=68
M:2/2
K:G
V:1 treble nm="Violin" snm="Vln."
V:2 treble transpose=-2 nm="B♭ Clarinet" snm="B♭ Cl."
V:3 treble nm="Piano"
V:4 treble 
V:5 bass 
V:6 bass 
V:7 treble-8 nm="Classical Guitar" snm="Guit."
V:1
 G4 B3 c | (d>e dc B2) c2 | (B2 G2) (A2 F2) | G6 B2 | c2 B2 A2 G2 | A6 A2 | (B>A Bc d2) e2 | %7
 d4 ^c4 | d8 | d4 d2 d2 | (B3 A) G2 B2 | (c2 B2 A2) G2 | A6 D2 | G2 A2 B2 G2 | c2 c2 c2 c2 | %15
 B6 B2 | A2 A2 (AB) (c>A) | d6 d2 | (e2 d2 c2) B2 | A6 A2 | G8 || %21
"^Main accomp. - Guitar. Piano - block chords only." z8 | z8 | z8 | z8 | z8 | z8 | z8 | z8 | z8 | %30
 G8 | D8 | F6 G2 | F8 | z8 | z8 | z8 | z8 | z4 z2 G2 | (E2 F2 G2) G2 | A4 d4 | d8 || g2 fe d2 g2 | %43
 g6 g2 | (gf) ed (fe) dc | B6 d2 | f2 g2 a2 a2 | f6 f2 | g4 d2 g2 | f4 e2 ^c2 | (de) fe d4 | %51
 !>!g4 !>!g4 | !>!g3 d !>!g4 | g2 g2 a2 a2 | !>!f2 f>g !>!a2 z2 | z4 z2 g2 | g2 !>!e6 | %57
 g2 g2 d2 d>d | d2 e2 f2 f>d | g6 d2 | e2 g2 f2 g2 | d4 d4 | g8 |] %63
V:2
 E4 A3 B | (^c>d cB A4) | (AB) ^c2 (dc) B2 | (AB ^cB) A2 c2 | d2 e2 e2 f2 | (^gf ef) g2 e2 | %6
 (e3 d ^c2) c2 | B2 !>!e2 B2 !>!f2 | B2 (d2 ^c2 B2) | A4 A2 e2 | (e3 d ^c2) e2 | f2 e2 e2 ^d2 | %12
 e6 z2 | z2 z2 z2 F2 | A2 A2 A2 A2 | E6 (^CE) | ((^GF)) GA B4 | (^c2 B2 c2) c2 | (A4 ^G2) A2 | %19
 A4 T^G4 | ^c8 || z8 | z8 | z8 | z8 | z8 | z8 | z8 | z8 | z4 z2 A/B/^c/d/ | e4 e2 e2 | %31
 (^c3 B A2) c2 | (d2 ^c2) .B2 .A2 | B6 z2 | z6 A2 | d2 d2 d2 d2 | ^c6 A2 | ((^GF)) .G.A B4 | %38
 (^c2 B2 c2) A/B/c/e/ | (f2 e2 d2) ^c2 | e4 ^G4 | A8 || A,4 A,3 B, | (^C>D CB, A,4) | %44
 (A,B,) ^C2 (DC) B,2 | (A,B, ^CB,) A,2 C2 | D2 E2 E2 F2 | (^GF EF) G2 E2 | (E3 D ^C2) C2 | %49
 B,2 !>!E2 B,2 !>!F2 | B,2 (D2 ^C2 B,2) | A,4 A,2 E2 | (E3 D ^C2) E2 | F2 E2 E2 ^D2 | %54
 !>!E2 E>F !>!^G2 z2 | z2 z2 z2 F2 | A2 A2 A2 A2 | E6 (^CE) | ((^GF)) GA B4 | E4 E2 E2 | %60
 (F2 E2) E2 E2 | A4 ^G4 | A8 |] %63
V:3
 G4 B3 c | (d>e dc B2) c2 | (B2 G2) (A2 F2) | G6 B2 | c2 B2 A2 G2 | A6 A2 | (B>A Bc d2) e2 | %7
 d4 ^c4 | d8 | d4 d2 d2 | (B3 A) G2 B2 | (c2 B2 A2) G2 | A6 z2 | z4 z2 G2 | c2 c2 c2 c2 | B6 B2 | %16
 A2 A2 (AB) (c>A) | d6 d2 | (e2 d2 c2) B2 | A6 A2 | G8 || G8 | d8 | B4 F4 | G6 B2 | c6 G2 | A6 A2 | %27
 B6 c2 | d4 ^c4 | d8 | d8 | B6 B2 | c6 G2 | A6 z2 | G8 | c8 | B8 | A8 | d8 | e6 B2 | A4 A4 | G8 || %42
"^Grand, majestic" G4 B3 c | (d>e dc B2) c2 | (B2 G2) (A2 F2) | G6 B2 | c2 B2 A2 G2 | A6 A2 | %48
 (B>A Bc d2) e2 | d4 ^c4 | d8 | d4 d2 d2 | (B3 A) G2 B2 | (c2 B2 A2) G2 | A6 z2 | z4 z2 G2 | %56
 c2 c2 c2 c2 | B6 B2 | A2 A2 (AB) (c>A) | d6 d2 | (e2 d2 c2) B2 | A6 A2 | G8 |] %63
V:4
 D4 D3 D | D6 E2 | D4 D4 | D6 G2 | F2 G2 A2 E2 | F6 F2 | G6 G2 | F4 E4 | F8 | G4 G2 G2 | G6 G2 | %11
 F2 G2 A2 E2 | F6 z2 | x6 G2 | E2 E2 E2 E2 | D6 D2 | D2 F2 FG A>F | (G2 F2 G2) G2 | G4 F2 G2 | %19
 G4 F4 | G8 || D8 | D8 | D4 D4 | D6 G2 | F6 E2 | F6 F2 | G6 G2 | F4 E4 | F8 | G8 | D6 G2 | F6 E2 | %33
 F6 z2 | D8 | E8 | D8 | D8 | G8 | G6 G2 | G4 F4 | G8 || D4 D3 D | D6 E2 | D4 D4 | D6 G2 | %46
 F2 G2 A2 E2 | F6 F2 | G6 G2 | F4 E4 | F8 | G4 G2 G2 | G6 G2 | F2 G2 A2 E2 | F6 z2 | x6 G2 | %56
 E2 E2 E2 E2 | D6 D2 | D2 F2 FG A>F | (G2 F2 G2) G2 | G4 F2 G2 | G4 F4 | G8 |] %63
V:5
 B,4 G,3 A, | (B,>C B,A, G,2) G,2 | (G,2 B,2) (C2 A,2) | B,6 D2 | D2 D2 D2 ^C2 | D6 D2 | %6
 (D3 C B,2) B,2 | A,4 A,4 | A,8 | B,4 B,2 B,2 | (D3 C B,2) D2 | D6 ^C2 | D6 D2 | G,2 A,2 B,2 G,2 | %14
 G,6 G,2 | G,2 D2 B,2 G,2 | (F,2 A,2 D2) C2 | B,2 A,2 B,2 B,2 | C2 D2 D2 D2 | D6 C2 | B,8 || B,8 | %22
 B,8 | G,4 A,4 | B,6 D2 | D6 ^C2 | D6 D2 | D6 C2 | A,4 A,4 | A,8 | B,8 | B,6 D2 | D6 ^C2 | D6 D2 | %34
 B,8 | G,8 | G,8 | [F,C]8 | B,8 | C6 D2 | D4 C4 | B,8 || B,4 G,3 A, | (B,>C B,A, G,2) G,2 | %44
 (G,2 B,2) (C2 A,2) | B,6 D2 | D2 D2 D2 ^C2 | D6 D2 | (D3 C B,2) B,2 | A,4 A,4 | A,8 | %51
 B,4 B,2 B,2 | (D3 C B,2) D2 | D6 ^C2 | D6 D2 | G,2 A,2 B,2 G,2 | G,6 G,2 | G,2 D2 B,2 G,2 | %58
 (F,2 A,2 D2) C2 | B,2 A,2 B,2 B,2 | C2 D2 D2 D2 | D6 C2 | B,8 |] %63
V:6
 G,4 G,3 G, | G,6 C,2 | D,4 D,4 | G,6 G,2 | A,2 G,2 F,2 E,2 | D,6 D,2 | G,6 E,2 | A,4 A,,4 | D,8 | %9
 G,4 G,2 G,2 | G,6 G,2 | (A,2 G,2 F,2) E,2 | D,6 D,2 | G,2 A,2 B,2 G,2 | C,6 C,2 | %15
 G,2 G,2 G,2 G,2 | D,6 D,2 | G,2 A,2 G,2 G,2 | C2 B,2 A,2 G,2 | D,6 D,2 | G,,8 || G,8 | G,8 | %23
 D,4 D,4 | G,6 G,2 | [D,A,]6 E,2 | D,6 D,2 | G,6 E,2 | A,4 A,,4 | D,8 | G,8 | G,6 G,2 | %32
 [D,A,]6 E,2 | D,6 D,2 | G,8 | C,8 | G,8 | D,8 | G,8 | C6 G,2 | D,4 D,4 | G,,8 || G,4 G,3 G, | %43
 G,6 C,2 | E4 D,4 | G,6 G,2 | A,2 G,2 F,2 E,2 | D,6 D,2 | G,6 E,2 | A,4 A,,4 | D,8 | G,4 G,2 G,2 | %52
 G,6 G,2 | (A,2 G,2 F,2) E,2 | D,6 D,2 | G,2 A,2 B,2 G,2 | C,6 C,2 | G,2 G,2 G,2 G,2 | D,6 D,2 | %59
 G,2 A,2 G,2 G,2 | C2 B,2 A,2 G,2 | D,6 D,2 | G,,8 |] %63
V:7
 z8 | z8 | z8 | z8 | z8 | z8 | z8 | z8 | z8 | z8 | z8 | z8 | z8 | z8 | z8 | z8 | z8 | z8 | z8 | %19
 z8 | z8 || G4 B3 c | (d>e dc B2) c2 | (B2 G2) (A2 F2) | G6 B2 | c2 B2 A2 G2 | A6 A2 | %27
 (B>A Bc d2) e2 | d4 ^c4 | d8 | z8 | z8 | z8 | z4 z2 D2 | G2 A2 B2 G2 | c2 GA/B/ cG Ec | %36
 B2 G/A/B/c/ d2 B2 | A2 A2 (AB) (c>A) | d6 d2 | (e2 d2 c2) B2 | A6 A2 | G8 || z8 | z8 | z8 | z8 | %46
 z8 | z8 | z8 | z8 | z8 | z8 | z8 | z8 | z8 | z8 | z8 | z8 | z8 | z8 | z8 | z8 | z8 |] %63

